X: 29491
T: Nigun Atik
R: barndance
M: 4/4
K: Cmajor
^GA EG AB GA|B8|Bc de dc BA|B8|
Be ed dc cB|A2 AB ^G4|^GA EG AB GF|E8|
e4 e4|de dc d2 B2|c4 c2 BA|B2 e2 E4|
e4 e4|de dc d2 B2|AB cA Bc/c/ A^G|A8|

